symbols/web/picture_as_pdf/materialsymbolsrounded/picture_as_pdf_wght200_20px.svg

<svg xmlns="http://www.w3.org/2000/svg" height="20" width="20"><path d="M8.062 8.604h.959q.291 0 .479-.177T9.688 8V6.979q0-.271-.188-.448t-.479-.177H7.812q-.166 0-.281.115-.114.114-.114.281v3.104q0 .125.104.219t.229.094q.104 0 .208-.094t.104-.219Zm0-.625v-1h.98v1Zm3.959 2.188q.291 0 .469-.177.177-.178.177-.448V6.979q0-.271-.177-.448-.178-.177-.469-.177h-1.146q-.167 0-.281.115-.115.114-.115.281v3.021q0 .167.115.281.114.115.281.115Zm-.896-.625V6.979h.896v2.563Zm3.187-.938h.792q.167 0 .25-.083.084-.083.084-.229 0-.146-.084-.23-.083-.083-.25-.083h-.792v-1h.792q.167 0 .25-.083.084-.084.084-.229 0-.146-.084-.229-.083-.084-.25-.084h-1.042q-.166 0-.281.115-.114.114-.114.281v3.104q0 .125.104.219t.229.094q.104 0 .208-.094t.104-.219ZM7.021 14q-.625 0-1.031-.406-.407-.406-.407-1.032V3.938q0-.626.407-1.032.406-.406 1.031-.406h8.625q.625 0 1.031.406.406.406.406 1.032v8.624q0 .626-.406 1.032T15.646 14Zm0-.917h8.625q.229 0 .375-.145.146-.146.146-.376V3.938q0-.23-.146-.375-.146-.146-.375-.146H7.021q-.229 0-.375.146-.146.145-.146.375v8.624q0 .23.146.376.146.145.375.145Zm-2.667 3.584q-.625 0-1.031-.407-.406-.406-.406-1.031V6.125q0-.167.135-.302.136-.135.323-.135t.323.135q.135.135.135.302v9.104q0 .229.146.375t.375.146h9.104q.167 0 .302.135.136.136.136.323 0 .188-.136.323-.135.136-.302.136ZM6.5 3.417v9.666V3.417Z"/></svg>

<svg xmlns="http://www.w3.org/2000/svg" height="20" width="20"><path d="M8.062 8.604H9.021Q9.312 8.604 9.5 8.427Q9.688 8.25 9.688 8V6.979Q9.688 6.708 9.5 6.531Q9.312 6.354 9.021 6.354H7.812Q7.646 6.354 7.531 6.469Q7.417 6.583 7.417 6.75V9.854Q7.417 9.979 7.521 10.073Q7.625 10.167 7.75 10.167Q7.854 10.167 7.958 10.073Q8.062 9.979 8.062 9.854ZM8.062 7.979V6.979H9.042V7.979ZM12.021 10.167Q12.312 10.167 12.49 9.99Q12.667 9.812 12.667 9.542V6.979Q12.667 6.708 12.49 6.531Q12.312 6.354 12.021 6.354H10.875Q10.708 6.354 10.594 6.469Q10.479 6.583 10.479 6.75V9.771Q10.479 9.938 10.594 10.052Q10.708 10.167 10.875 10.167ZM11.125 9.542V6.979H12.021V9.542ZM14.312 8.604H15.104Q15.271 8.604 15.354 8.521Q15.438 8.438 15.438 8.292Q15.438 8.146 15.354 8.062Q15.271 7.979 15.104 7.979H14.312V6.979H15.104Q15.271 6.979 15.354 6.896Q15.438 6.812 15.438 6.667Q15.438 6.521 15.354 6.438Q15.271 6.354 15.104 6.354H14.062Q13.896 6.354 13.781 6.469Q13.667 6.583 13.667 6.75V9.854Q13.667 9.979 13.771 10.073Q13.875 10.167 14 10.167Q14.104 10.167 14.208 10.073Q14.312 9.979 14.312 9.854ZM7.021 14Q6.396 14 5.99 13.594Q5.583 13.188 5.583 12.562V3.938Q5.583 3.312 5.99 2.906Q6.396 2.5 7.021 2.5H15.646Q16.271 2.5 16.677 2.906Q17.083 3.312 17.083 3.938V12.562Q17.083 13.188 16.677 13.594Q16.271 14 15.646 14ZM7.021 13.083H15.646Q15.875 13.083 16.021 12.938Q16.167 12.792 16.167 12.562V3.938Q16.167 3.708 16.021 3.563Q15.875 3.417 15.646 3.417H7.021Q6.792 3.417 6.646 3.563Q6.5 3.708 6.5 3.938V12.562Q6.5 12.792 6.646 12.938Q6.792 13.083 7.021 13.083ZM4.354 16.667Q3.729 16.667 3.323 16.26Q2.917 15.854 2.917 15.229V6.125Q2.917 5.958 3.052 5.823Q3.188 5.688 3.375 5.688Q3.562 5.688 3.698 5.823Q3.833 5.958 3.833 6.125V15.229Q3.833 15.458 3.979 15.604Q4.125 15.75 4.354 15.75H13.458Q13.625 15.75 13.76 15.885Q13.896 16.021 13.896 16.208Q13.896 16.396 13.76 16.531Q13.625 16.667 13.458 16.667ZM6.5 3.417Q6.5 3.417 6.5 3.563Q6.5 3.708 6.5 3.938V12.562Q6.5 12.792 6.5 12.938Q6.5 13.083 6.5 13.083Q6.5 13.083 6.5 12.938Q6.5 12.792 6.5 12.562V3.938Q6.5 3.708 6.5 3.563Q6.5 3.417 6.5 3.417Z"/></svg>
